fs/toggle_multiple_24_regular.svg

<svg viewBox="0 0 24 24" fill="none" xmlns="http://www.w3.org/2000/svg" height="1em" width="1em">
  <path d="M6.5 8.5C7.60457 8.5 8.5 7.60457 8.5 6.5C8.5 5.39543 7.60457 4.5 6.5 4.5C5.39543 4.5 4.5 5.39543 4.5 6.5C4.5 7.60457 5.39543 8.5 6.5 8.5ZM6.5 2H17.5C19.9853 2 22 4.01472 22 6.5C22 8.98528 19.9853 11 17.5 11H6.5C4.01472 11 2 8.98528 2 6.5C2 4.01472 4.01472 2 6.5 2ZM17.5 3.5H6.5C4.84315 3.5 3.5 4.84315 3.5 6.5C3.5 8.15685 4.84315 9.5 6.5 9.5H17.5C19.1569 9.5 20.5 8.15685 20.5 6.5C20.5 4.84315 19.1569 3.5 17.5 3.5ZM17.5 19.5C18.6046 19.5 19.5 18.6046 19.5 17.5C19.5 16.3954 18.6046 15.5 17.5 15.5C16.3954 15.5 15.5 16.3954 15.5 17.5C15.5 18.6046 16.3954 19.5 17.5 19.5ZM2 17.5C2 15.0147 4.01472 13 6.5 13H17.5C19.9853 13 22 15.0147 22 17.5C22 19.9853 19.9853 22 17.5 22H6.5C4.01472 22 2 19.9853 2 17.5ZM6.5 14.5C4.84315 14.5 3.5 15.8431 3.5 17.5C3.5 19.1569 4.84315 20.5 6.5 20.5H17.5C19.1569 20.5 20.5 19.1569 20.5 17.5C20.5 15.8431 19.1569 14.5 17.5 14.5H6.5Z" fill="#212121"/>
</svg>

<svg viewBox="0 0 24 24" fill="none" xmlns="http://www.w3.org/2000/svg" height="1em" width="1em">
  <path d="M6.5 8.5a2 2 0 1 0 0-4 2 2 0 0 0 0 4Zm0-6.5h11a4.5 4.5 0 1 1 0 9h-11a4.5 4.5 0 0 1 0-9Zm11 1.5h-11a3 3 0 0 0 0 6h11a3 3 0 1 0 0-6Zm0 16a2 2 0 1 0 0-4 2 2 0 0 0 0 4ZM2 17.5A4.5 4.5 0 0 1 6.5 13h11a4.5 4.5 0 1 1 0 9h-11A4.5 4.5 0 0 1 2 17.5Zm4.5-3a3 3 0 1 0 0 6h11a3 3 0 1 0 0-6h-11Z" fill="#212121"/>
</svg>
